svg/black/sub.svg

<svg xmlns="http://www.w3.org/2000/svg" width="32" height="32" viewBox="0 0 32 32">
  <path d="M16,32 C7.163444,32 0,24.836556 0,16 C0,7.163444 7.163444,0 16,0 C24.836556,0 32,7.163444 32,16 C32,24.836556 24.836556,32 16,32 Z M12.1168,5.3136 L8.1008,8.328 C8.0381024,8.37479828 8.0008263,8.44816711 8,8.5264 C7.99933157,8.60587515 8.03681882,8.68084965 8.1008,8.728 L23.9024,20.5808 L23.008,21.2512 C22.9215438,21.3158694 22.8862352,21.4286481 22.9203773,21.5310742 C22.9545194,21.6335004 23.0504334,21.7025382 23.1584,21.7024 C23.212592,21.7026544 23.2653909,21.685242 23.3088,21.6528 L24.4704,20.7824 C24.5338551,20.7348087 24.5712,20.6601188 24.5712,20.5808 C24.5712,20.5014812 24.5338551,20.4267913 24.4704,20.3792 L8.6688,8.5264 L12.2672,5.8288 L13.3728,6.656 C13.4442531,6.70973275 13.5389446,6.72126407 13.6212051,6.68625023 C13.7034656,6.65123639 13.7607977,6.57499682 13.7716051,6.48625022 C13.7824125,6.39750363 13.7450531,6.30973274 13.6736,6.256 L12.4176,5.3136 C12.3741909,5.28115798 12.321392,5.26374559 12.2672,5.264 C12.2128987,5.26304004 12.1598773,5.28052583 12.1168,5.3136 Z M16.1344,5.3136 L10.944,9.2064 C10.8331012,9.28946363 10.8105364,9.44670122 10.8936,9.5576 C10.9766636,9.66849878 11.1339012,9.69106363 11.2448,9.608 L16.2848,5.8288 L23.5648,11.288 L20.3856,11.288 L15.1792,7.384 C15.1074611,7.33026725 15.0125055,7.31888841 14.9301021,7.35414977 C14.8476987,7.38941114 14.7903665,7.46595567 14.7797021,7.55494978 C14.7690376,7.64394389 14.8066611,7.73186726 14.8784,7.7856 L20.1504,11.7392 C20.1937873,11.7718749 20.2464883,11.7898156 20.3008,11.7904 L24.3184,11.7904 C24.4264891,11.790353 24.5221825,11.7205227 24.5552,11.6176 C24.5903758,11.515891 24.5553789,11.403123 24.4688,11.3392 L16.4336,5.312 C16.3448304,5.2452629 16.2224508,5.24591734 16.1344,5.3136 Z M9.2096,10.5088 L8.0992,11.3392 C8.03648553,11.387238 7.99979537,11.4618018 8,11.5408 C7.99982341,11.6193459 8.03655981,11.6934112 8.0992,11.7408 L23.9024,23.5936 L20.3024,26.2928 L19.2928,25.536 C19.2210611,25.4819814 19.125953,25.4703385 19.0433021,25.505457 C18.9606512,25.5405754 18.9030141,25.6171199 18.8921021,25.706257 C18.8811901,25.795394 18.9186611,25.8835814 18.9904,25.9376 L20.152,26.8096 C20.195527,26.841815 20.2482483,26.8592018 20.3024,26.8592 C20.356631,26.859703 20.4095074,26.8422651 20.4528,26.8096 L24.4704,23.7968 C24.5340257,23.7500684 24.5714858,23.675743 24.5712,23.5968 C24.5715051,23.5174095 24.5340955,23.4425903 24.4704,23.3952 L8.6688,11.5408 L9.5104,10.9104 C9.56376925,10.8707493 9.59904831,10.8113872 9.60836675,10.7455569 C9.61768519,10.6797267 9.60026772,10.6129053 9.56,10.56 C9.51279666,10.4969346 9.43877323,10.4596268 9.36,10.4592 C9.30557885,10.457429 9.25229114,10.4750026 9.2096,10.5088 Z M8.2512,20.328 C8.14320772,20.3279294 8.04723928,20.3968463 8.0128,20.4992 C7.97930559,20.6018943 8.01387407,20.7145619 8.0992,20.7808 L16.136,26.8064 C16.1792926,26.8390651 16.232169,26.856503 16.2864,26.856 C16.340592,26.8562544 16.3933909,26.838842 16.4368,26.8064 L21.6176,22.9216 C21.7284988,22.8380945 21.7507054,22.6804988 21.6672,22.5696 C21.5836945,22.4587012 21.4260988,22.4364946 21.3152,22.52 L16.2864,26.2928 L9.0048,20.832 L12.1856,20.832 L17.3312,24.6928 C17.4420988,24.7758636 17.5993364,24.7532988 17.6824,24.6424 C17.7654636,24.5315012 17.7428988,24.3742636 17.632,24.2912 L12.416,20.3808 C12.3733425,20.3467694 12.3201608,20.328665 12.2656,20.3296 L8.2512,20.3296 L8.2512,20.328 Z"/>
</svg>

<svg xmlns="http://www.w3.org/2000/svg" width="32" height="32"><path d="M16 32C7.163 32 0 24.837 0 16S7.163 0 16 0s16 7.163 16 16-7.163 16-16 16zM12.117 5.314L8.1 8.328a.248.248 0 0 0 0 .4l15.801 11.853-.894.67a.25.25 0 1 0 .3.402l1.162-.87a.252.252 0 0 0 0-.404L8.67 8.526l3.598-2.697 1.106.827a.25.25 0 1 0 .3-.4l-1.255-.942a.25.25 0 0 0-.15-.05.24.24 0 0 0-.151.05zm4.017 0l-5.19 3.892a.25.25 0 0 0 .3.402l5.04-3.78 7.28 5.46h-3.178l-5.207-3.904a.25.25 0 1 0-.3.402l5.271 3.953c.044.033.096.05.15.051h4.018c.108 0 .204-.07.237-.172a.246.246 0 0 0-.086-.279l-8.035-6.027a.247.247 0 0 0-.3.002zM9.21 10.509l-1.11.83a.253.253 0 0 0 0 .402l15.802 11.853-3.6 2.699-1.01-.757a.251.251 0 1 0-.302.402l1.162.872a.253.253 0 0 0 .3 0l4.018-3.013a.25.25 0 0 0 0-.402L8.67 11.541l.841-.63a.249.249 0 0 0 .05-.351.252.252 0 0 0-.35-.051zm-.959 9.819a.251.251 0 0 0-.152.453l8.037 6.025a.25.25 0 0 0 .3 0l5.182-3.884a.251.251 0 0 0-.303-.402l-5.029 3.773-7.281-5.461h3.18l5.146 3.86a.25.25 0 1 0 .301-.4l-5.216-3.911a.235.235 0 0 0-.15-.051H8.25v-.002z"/></svg>
